resources/lib/oojs-ui/themes/mediawiki/images/icons/outdent-rtl.svg

<?xml version="1.0" encoding="utf-8"?>
<svg xmlns="http://www.w3.org/2000/svg" width="24" height="24" viewBox="0 0 24 24">
    <g id="g496">
        <path d="M14 8h-9v2h9v-2zm0 3h-9v2h9v-2zm0 3h-6v2h6v-2zm-11-8h18v-2h-18v2zm0 14h18v-2h-18v2zm18-8l-5 4v-8l5 4z" id="path498"/>
    </g>
</svg>

<?xml version="1.0" encoding="utf-8"?>
<svg xmlns="http://www.w3.org/2000/svg" width="24" height="24" viewBox="0 0 24 24">
    <path d="M14 8H5v2h9V8zm0 3H5v2h9v-2zm0 3H8v2h6v-2zM3 6h18V4H3v2zm0 14h18v-2H3v2zm18-8l-5 4V8l5 4z"/>
</svg>
